packages/sources/icons/src/vitamix/funding.svg

<svg width="24" height="24" viewBox="0 0 24 24" fill="none" xmlns="http://www.w3.org/2000/svg">
<path fill-rule="evenodd" clip-rule="evenodd" d="M16.0226 16.8749C15.8468 16.5275 15.75 16.1477 15.75 15.7499C15.75 14.0931 17.4289 12.75 19.5 12.75C21.5711 12.75 23.25 14.0931 23.25 15.7499C23.25 16.1477 23.1532 16.5275 22.9774 16.8749C23.1532 17.2223 23.25 17.602 23.25 17.9999C23.25 19.6567 21.5711 20.9998 19.5 20.9998C17.4289 20.9998 15.75 19.6567 15.75 17.9999C15.75 17.602 15.8468 17.2223 16.0226 16.8749ZM21.736 18.1585C21.1117 18.53 20.338 18.7498 19.5 18.7498C18.6621 18.7498 17.8884 18.53 17.2641 18.1585C17.3857 18.8487 18.2858 19.4998 19.5 19.4998C20.7143 19.4998 21.6143 18.8487 21.736 18.1585ZM10.7114 9.60912L18.75 8.06326V3.15653L4.5 5.87076V10.8036L9.81026 9.78241C9.76111 9.69383 9.71743 9.60188 9.67943 9.507L9 9.61526V8.77014L9.50132 8.69014C9.49495 8.57051 9.49532 8.45051 9.50395 8.33015L9 8.41051V7.56539L9.7023 7.45347C9.84403 7.08467 10.0551 6.73312 10.3296 6.42047C11.4534 5.1416 13.3038 4.86857 14.4542 5.81131L13.9067 6.45092C13.1122 5.79956 11.7972 6.03002 10.976 6.96467C10.8849 7.06816 10.8036 7.17715 10.7312 7.2898L12.5846 6.99513V7.84025L10.378 8.19107C10.3574 8.31253 10.3476 8.43437 10.3491 8.55546L12.5846 8.19951V9.04499L10.5505 9.36829C10.5967 9.45362 10.6503 9.53411 10.7114 9.60912ZM3 11.0921V5.25015C3 4.89006 3.25593 4.58079 3.60967 4.51341L19.3597 1.51348C19.8218 1.42545 20.25 1.77975 20.25 2.25022V7.77482L21.6084 7.5136C22.0709 7.42465 22.5 7.77908 22.5 8.25009V12C22.5 12.4142 22.1642 12.75 21.75 12.75C21.3358 12.75 21 12.4142 21 12V9.15804L3 12.6195V20.8461L14.1118 18.7627C14.5189 18.6864 14.9108 18.9545 14.9872 19.3616C15.0635 19.7687 14.7953 20.1606 14.3882 20.237L2.38822 22.4869C1.92666 22.5735 1.5 22.2194 1.5 21.7498V12C1.5 11.6404 1.75523 11.3314 2.10836 11.2635L3 11.0921ZM12 14.9999C11.1716 14.9999 10.5 14.3284 10.5 13.5C10.5 12.6716 11.1716 12 12 12C12.8284 12 13.5 12.6716 13.5 13.5C13.5 14.3284 12.8284 14.9999 12 14.9999ZM19.5 17.2499C20.807 17.2499 21.75 16.4955 21.75 15.7499C21.75 15.0043 20.807 14.2499 19.5 14.2499C18.193 14.2499 17.25 15.0043 17.25 15.7499C17.25 16.4955 18.193 17.2499 19.5 17.2499Z" fill="#001018"/>
</svg>

<svg width="24" height="24" fill="none" xmlns="http://www.w3.org/2000/svg"><path fill-rule="evenodd" clip-rule="evenodd" d="M16.023 16.875a2.479 2.479 0 0 1-.273-1.125c0-1.657 1.679-3 3.75-3 2.071 0 3.75 1.343 3.75 3 0 .398-.097.777-.273 1.125.176.347.273.727.273 1.125 0 1.657-1.679 3-3.75 3-2.071 0-3.75-1.343-3.75-3 0-.398.097-.778.273-1.125zm5.713 1.284a4.381 4.381 0 0 1-2.236.59 4.385 4.385 0 0 1-2.236-.59c.122.69 1.022 1.34 2.236 1.34 1.214 0 2.114-.65 2.236-1.34zm-11.025-8.55 8.039-1.546V3.157L4.5 5.87v4.933l5.31-1.022a2.428 2.428 0 0 1-.13-.275L9 9.615V8.77l.501-.08c-.006-.12-.006-.24.003-.36L9 8.41v-.845l.702-.112a3.44 3.44 0 0 1 .628-1.033c1.123-1.278 2.974-1.551 4.124-.609l-.547.64c-.795-.651-2.11-.421-2.931.514a2.704 2.704 0 0 0-.245.325l1.854-.295v.845l-2.207.351c-.02.122-.03.243-.029.364l2.236-.355v.845l-2.035.323c.047.086.1.166.161.241zM3 11.092V5.25c0-.36.256-.67.61-.737l15.75-3a.75.75 0 0 1 .89.737v5.525l1.358-.261a.75.75 0 0 1 .892.736V12a.75.75 0 0 1-1.5 0V9.158L3 12.62v8.226l11.112-2.083a.75.75 0 0 1 .276 1.474l-12 2.25a.75.75 0 0 1-.888-.737V12a.75.75 0 0 1 .608-.736L3 11.091zM12 15a1.5 1.5 0 1 1 0-3 1.5 1.5 0 0 1 0 3zm7.5 2.25c1.307 0 2.25-.755 2.25-1.5 0-.746-.943-1.5-2.25-1.5s-2.25.754-2.25 1.5c0 .745.943 1.5 2.25 1.5z" fill="#001018"/></svg>
